static/logos/make-wordmark-color.svg

<svg width="100" height="21" viewBox="0 0 100 21" fill="none" xmlns="http://www.w3.org/2000/svg">
<g clip-path="url(#clip0_1_2072)">
<path d="M34.3039 10.7466V19.7398C34.3041 19.8094 34.2905 19.8783 34.2639 19.9426C34.2374 20.0069 34.1984 20.0653 34.1492 20.1145C34.1 20.1637 34.0416 20.2027 33.9774 20.2292C33.913 20.2558 33.8441 20.2693 33.7745 20.2692H29.8888C29.8192 20.2692 29.7504 20.2555 29.6862 20.229C29.6219 20.2024 29.5636 20.1633 29.5145 20.1141C29.4653 20.065 29.4262 20.0067 29.3996 19.9424C29.3731 19.8782 29.3594 19.8094 29.3594 19.7398V5.5362C29.3594 5.46667 29.3731 5.39783 29.3996 5.3336C29.4262 5.26937 29.4653 5.21101 29.5145 5.16184C29.5636 5.11269 29.6219 5.07369 29.6862 5.04708C29.7504 5.02049 29.8192 5.00679 29.8888 5.00679H33.7745C33.8441 5.00664 33.913 5.02023 33.9774 5.04679C34.0416 5.07334 34.1 5.11233 34.1492 5.16152C34.1984 5.2107 34.2374 5.26913 34.2639 5.33343C34.2905 5.39773 34.3041 5.46663 34.3039 5.5362V6.65498C35.2813 5.42986 36.6512 4.67081 38.5743 4.67081C40.3741 4.67081 41.9306 5.40271 42.8729 6.77715C44.0325 5.40271 45.6806 4.67081 47.6953 4.67081C51.1139 4.67081 53.4646 6.68552 53.4646 10.5305V19.7376C53.4647 19.8071 53.4511 19.876 53.4245 19.9404C53.3981 20.0046 53.359 20.063 53.3098 20.1122C53.2606 20.1614 53.2022 20.2005 53.138 20.2269C53.0736 20.2535 53.0047 20.2671 52.9352 20.267H49.0562C48.9158 20.267 48.7811 20.2112 48.6819 20.1119C48.5826 20.0127 48.5268 19.8779 48.5268 19.7376V11.569C48.5268 9.89027 47.5811 9.06561 46.2994 9.06561C45.2304 9.06561 44.3763 9.73756 43.8877 10.7443V19.7376C43.8878 19.8071 43.8742 19.876 43.8476 19.9404C43.8211 20.0046 43.7821 20.063 43.7329 20.1122C43.6837 20.1614 43.6253 20.2005 43.5611 20.2269C43.4967 20.2535 43.4278 20.2671 43.3582 20.267H39.4725C39.3321 20.267 39.1974 20.2112 39.0982 20.1119C38.9989 20.0127 38.9431 19.8779 38.9431 19.7376V11.569C38.9431 9.89027 37.9974 9.06561 36.7157 9.06561C35.6162 9.06561 34.7926 9.73756 34.3039 10.7466ZM59.9691 20.5724C57.1003 20.5724 54.6886 18.6799 54.6886 15.75C54.6886 13.0645 56.4589 11.8122 59.7553 10.9581L63.968 9.85973C63.8458 8.85181 63.0517 8.36425 61.77 8.36425C60.6388 8.36425 59.8175 8.79864 59.4408 9.66742C59.3932 9.78598 59.3049 9.88368 59.1916 9.94297C59.0784 10.0023 58.9478 10.0193 58.8232 9.99095L55.4838 9.19909C55.411 9.18173 55.3426 9.14917 55.2832 9.10357C55.2239 9.05796 55.1748 9.00033 55.1392 8.93443C55.1037 8.86854 55.0825 8.79588 55.0769 8.72121C55.0714 8.64654 55.0817 8.57155 55.1071 8.50113C56.0653 5.90837 58.727 4.54977 61.9499 4.54977C66.2836 4.54977 68.787 6.59502 68.787 10.1957V19.7387C68.787 19.8791 68.7312 20.0138 68.6319 20.113C68.5327 20.2123 68.398 20.2681 68.2576 20.2681H64.5766C64.4383 20.2681 64.3055 20.214 64.2065 20.1174C64.1077 20.0208 64.0504 19.8894 64.0472 19.7511L64.0291 18.9593L63.9985 18.9898C62.7463 20.0532 61.5257 20.5724 59.9691 20.5724ZM61.2202 16.7568C61.8616 16.7568 62.3515 16.5747 63.0822 16.1471L63.9374 15.6278L63.968 13.1561L61.77 13.7658C60.2745 14.1934 59.6026 14.5577 59.6026 15.414C59.6026 16.3609 60.4272 16.7568 61.2202 16.7568ZM76.684 13.0645L75.1886 14.4378V19.7376C75.1887 19.8071 75.1751 19.876 75.1485 19.9404C75.122 20.0046 75.083 20.063 75.0338 20.1122C74.9846 20.1614 74.9262 20.2005 74.862 20.2269C74.7976 20.2535 74.7287 20.2671 74.6591 20.267H70.865C70.7246 20.267 70.5899 20.2112 70.4907 20.1119C70.3914 20.0127 70.3356 19.8779 70.3356 19.7376V0.529412C70.336 0.389095 70.3918 0.254611 70.491 0.155391C70.5903 0.0561719 70.7248 0.000298865 70.865 0H74.6603C74.8007 0 74.9354 0.0557772 75.0346 0.155061C75.1339 0.254345 75.1897 0.389003 75.1897 0.529412V9.21833L79.6162 5.14593C79.7148 5.05609 79.8435 5.00644 79.977 5.00679H84.6614C84.7682 5.00682 84.8725 5.03915 84.9606 5.09954C85.0486 5.15992 85.1165 5.24553 85.155 5.34514C85.1935 5.44474 85.201 5.55366 85.1766 5.65762C85.152 5.76157 85.0967 5.85569 85.0177 5.9276L80.4691 10.0735L85.6524 19.4819C85.6968 19.5626 85.7194 19.6534 85.7181 19.7454C85.7167 19.8374 85.6914 19.9276 85.6446 20.0068C85.5977 20.0861 85.5311 20.1518 85.4511 20.1974C85.3711 20.243 85.2806 20.267 85.1886 20.267H80.7598C80.663 20.2669 80.5681 20.2402 80.4854 20.1899C80.4026 20.1397 80.3352 20.0678 80.2904 19.9819L76.684 13.0645Z" fill="black"/>
<path d="M92.7828 20.6029C88.5408 20.6029 84.6641 17.948 84.6641 12.5713C84.6641 7.50457 88.388 4.57471 92.4774 4.57471C96.7206 4.57471 99.8032 7.53511 99.9254 12.2048C99.9389 12.698 99.9469 13.0419 99.9514 13.2862C99.9524 13.3563 99.9395 13.426 99.9134 13.4911C99.8873 13.5562 99.8483 13.6154 99.7991 13.6654C99.7498 13.7153 99.6911 13.7549 99.6264 13.7818C99.5616 13.8088 99.4921 13.8226 99.422 13.8224H89.5475C89.7003 15.6538 91.1652 16.8134 93.0272 16.8134C94.3518 16.8134 95.4378 16.2624 96.1946 15.267C96.2762 15.1613 96.3949 15.0907 96.5268 15.0697C96.6586 15.0488 96.7935 15.0788 96.9039 15.1538L99.3711 16.8054C99.4293 16.8451 99.4792 16.8958 99.5179 16.9549C99.5565 17.0138 99.5831 17.0798 99.5962 17.1491C99.6092 17.2183 99.6084 17.2895 99.5938 17.3585C99.5793 17.4275 99.5513 17.4929 99.5113 17.5509C98.1957 19.4966 96.0159 20.6029 92.7828 20.6029ZM89.6392 10.836H94.9808C94.9503 9.0962 93.6686 8.33376 92.3258 8.33376C91.0736 8.33376 89.7919 9.06566 89.6392 10.836Z" fill="black"/>
<path d="M21.5975 20.2229H17.7638C17.6234 20.2229 17.4887 20.1671 17.3895 20.0678C17.2901 19.9685 17.2344 19.8338 17.2344 19.6935V5.54299C17.2353 5.40306 17.2914 5.26915 17.3906 5.17042C17.4897 5.07169 17.6239 5.01613 17.7638 5.01584H21.5964C21.7365 5.01553 21.8711 5.07086 21.9707 5.1697C22.0701 5.26852 22.1263 5.40277 22.1269 5.54299V19.6935C22.127 19.763 22.1134 19.8319 22.0869 19.8962C22.0604 19.9605 22.0214 20.0189 21.9722 20.0681C21.9229 20.1173 21.8646 20.1563 21.8003 20.1828C21.736 20.2094 21.6671 20.223 21.5975 20.2229Z" fill="url(#paint0_linear_1_2072)"/>
<path d="M3.82511 20.276L0.400906 18.552C0.275545 18.489 0.180344 18.3787 0.136224 18.2455C0.0921038 18.1123 0.102674 17.9671 0.165612 17.8416L6.51855 5.20361C6.5816 5.07825 6.69185 4.98305 6.82505 4.93893C6.95827 4.89481 7.10354 4.90538 7.22896 4.96832L10.6543 6.6889C10.7797 6.75196 10.8749 6.8622 10.919 6.99541C10.9631 7.12861 10.9525 7.27389 10.8896 7.39931L4.53552 20.0407C4.47247 20.1661 4.36223 20.2613 4.22901 20.3054C4.09581 20.3495 3.95053 20.3389 3.82511 20.276Z" fill="url(#paint1_linear_1_2072)"/>
<path d="M13.938 19.9909L16.6529 6.21158C16.68 6.07437 16.6516 5.93204 16.574 5.81569C16.4964 5.69933 16.3759 5.61839 16.2389 5.59054L12.4821 4.83149C12.4138 4.81781 12.3434 4.81772 12.2751 4.83124C12.2067 4.84476 12.1416 4.87161 12.0837 4.91027C12.0257 4.94893 11.9759 4.99864 11.9371 5.05655C11.8983 5.11445 11.8714 5.17944 11.8577 5.24778L9.14274 19.0283C9.11576 19.1657 9.1443 19.3081 9.2221 19.4245C9.2999 19.5409 9.42064 19.6218 9.5579 19.6493L13.3136 20.4072C13.3819 20.4213 13.4524 20.4216 13.5208 20.4083C13.5893 20.3948 13.6545 20.368 13.7125 20.3293C13.7706 20.2906 13.8205 20.2407 13.8591 20.1827C13.8978 20.1247 13.9246 20.0595 13.938 19.9909Z" fill="url(#paint2_linear_1_2072)"/>
</g>
<defs>
<linearGradient id="paint0_linear_1_2072" x1="12.5851" y1="15.2364" x2="22.9278" y2="11.4231" gradientUnits="userSpaceOnUse">
<stop offset="0.02" stop-color="#B02DE9"/>
<stop offset="0.8" stop-color="#6D00CC"/>
</linearGradient>
<linearGradient id="paint1_linear_1_2072" x1="3.50271" y1="13.4966" x2="14.6215" y2="8.6889" gradientUnits="userSpaceOnUse">
<stop stop-color="#FF00FF"/>
<stop offset="0.18" stop-color="#E80DF9"/>
<stop offset="0.54" stop-color="#C024ED"/>
<stop offset="0.73" stop-color="#B02DE9"/>
</linearGradient>
<linearGradient id="paint2_linear_1_2072" x1="0.907441" y1="17.0351" x2="23.6993" y2="8.64371" gradientUnits="userSpaceOnUse">
<stop offset="0.02" stop-color="#FF00FF"/>
<stop offset="0.09" stop-color="#E80DF9"/>
<stop offset="0.23" stop-color="#C024ED"/>
<stop offset="0.3" stop-color="#B02DE9"/>
<stop offset="0.42" stop-color="#A42BE3"/>
<stop offset="0.63" stop-color="#8527D5"/>
<stop offset="0.85" stop-color="#6021C3"/>
</linearGradient>
<clipPath id="clip0_1_2072">
<rect width="100" height="20.7014" fill="white"/>
</clipPath>
</defs>
</svg>

<svg xmlns="http://www.w3.org/2000/svg" width="304.762" height="64" fill="none" viewBox="0 0 100 21"><g clip-path="url(#a)"><path fill="#000" d="M34.304 10.747v8.993a.526.526 0 0 1-.53.53H29.89a.53.53 0 0 1-.53-.53V5.536a.531.531 0 0 1 .53-.53h3.886a.529.529 0 0 1 .529.53v1.119c.977-1.225 2.347-1.984 4.27-1.984 1.8 0 3.357.732 4.299 2.106 1.16-1.374 2.808-2.106 4.822-2.106 3.419 0 5.77 2.015 5.77 5.86v9.207a.53.53 0 0 1-.53.529h-3.879a.53.53 0 0 1-.53-.53V11.57c0-1.679-.945-2.503-2.227-2.503-1.069 0-1.923.672-2.411 1.678v8.994a.53.53 0 0 1-.53.529h-3.886a.53.53 0 0 1-.529-.53V11.57c0-1.679-.946-2.503-2.227-2.503-1.1 0-1.923.672-2.412 1.68Zm25.665 9.825c-2.869 0-5.28-1.892-5.28-4.822 0-2.685 1.77-3.938 5.066-4.792l4.213-1.098c-.122-1.008-.916-1.496-2.198-1.496-1.131 0-1.953.435-2.33 1.303a.537.537 0 0 1-.617.324l-3.34-.792a.532.532 0 0 1-.376-.698c.958-2.593 3.62-3.951 6.843-3.951 4.334 0 6.837 2.045 6.837 5.646v9.543a.53.53 0 0 1-.53.53h-3.68a.53.53 0 0 1-.53-.518l-.018-.792-.03.03c-1.253 1.064-2.473 1.583-4.03 1.583Zm1.251-3.815c.642 0 1.132-.182 1.862-.61l.855-.52.031-2.47-2.198.609c-1.495.427-2.167.792-2.167 1.648 0 .947.824 1.343 1.617 1.343Zm15.464-3.693-1.495 1.374v5.3a.53.53 0 0 1-.53.529h-3.794a.53.53 0 0 1-.53-.53V.53a.531.531 0 0 1 .53-.529h3.795a.53.53 0 0 1 .53.53v8.688l4.426-4.072a.534.534 0 0 1 .361-.14h4.684a.53.53 0 0 1 .357.922l-4.549 4.145 5.183 9.409a.531.531 0 0 1-.463.785h-4.43a.53.53 0 0 1-.469-.285l-3.606-6.917Z"/><path fill="#000" d="M92.783 20.603c-4.242 0-8.119-2.655-8.119-8.032 0-5.066 3.724-7.996 7.813-7.996 4.244 0 7.326 2.96 7.448 7.63.014.493.022.837.026 1.081a.53.53 0 0 1-.529.536h-9.874c.152 1.832 1.617 2.991 3.48 2.991 1.324 0 2.41-.55 3.167-1.546a.524.524 0 0 1 .709-.113l2.467 1.651a.537.537 0 0 1 .14.746c-1.315 1.946-3.495 3.052-6.728 3.052Zm-3.144-9.767h5.342c-.03-1.74-1.312-2.502-2.655-2.502-1.252 0-2.534.732-2.687 2.502Z"/><path fill="url(#b)" d="M21.598 20.223h-3.834a.53.53 0 0 1-.53-.53V5.543a.53.53 0 0 1 .53-.527h3.832a.53.53 0 0 1 .53.527v14.15a.53.53 0 0 1-.529.53Z"/><path fill="url(#c)" d="M3.825 20.276.401 18.552a.53.53 0 0 1-.235-.71L6.519 5.204a.53.53 0 0 1 .71-.236l3.425 1.72a.53.53 0 0 1 .236.711L4.536 20.041a.53.53 0 0 1-.71.235Z"/><path fill="url(#d)" d="m13.938 19.99 2.715-13.778a.529.529 0 0 0-.414-.621l-3.757-.76a.53.53 0 0 0-.624.417l-2.715 13.78a.53.53 0 0 0 .415.621l3.756.758a.527.527 0 0 0 .624-.416Z"/></g><defs><linearGradient id="b" x1="12.585" x2="22.928" y1="15.236" y2="11.423" gradientUnits="userSpaceOnUse"><stop offset=".02" stop-color="#B02DE9"/><stop offset=".8" stop-color="#6D00CC"/></linearGradient><linearGradient id="c" x1="3.503" x2="14.621" y1="13.497" y2="8.689" gradientUnits="userSpaceOnUse"><stop stop-color="#F0F"/><stop offset=".18" stop-color="#E80DF9"/><stop offset=".54" stop-color="#C024ED"/><stop offset=".73" stop-color="#B02DE9"/></linearGradient><linearGradient id="d" x1=".907" x2="23.699" y1="17.035" y2="8.644" gradientUnits="userSpaceOnUse"><stop offset=".02" stop-color="#F0F"/><stop offset=".09" stop-color="#E80DF9"/><stop offset=".23" stop-color="#C024ED"/><stop offset=".3" stop-color="#B02DE9"/><stop offset=".42" stop-color="#A42BE3"/><stop offset=".63" stop-color="#8527D5"/><stop offset=".85" stop-color="#6021C3"/></linearGradient><clipPath id="a"><path fill="#fff" d="M0 0h100v20.701H0z"/></clipPath></defs></svg>
